build/category/DepositSolid.svg

<svg xmlns="http://www.w3.org/2000/svg" fill="none" viewBox="0 0 24 24" focusable="false"><path d="M0 0H24V24H0z"/><path fill="#74767B" fill-rule="evenodd" d="M12 14.7C13.4912 14.7 14.7 13.4912 14.7 12C14.7 10.5088 13.4912 9.3 12 9.3C10.5088 9.3 9.3 10.5088 9.3 12C9.3 13.4912 10.5088 14.7 12 14.7ZM13 12C13 12.5523 12.5523 13 12 13C11.4477 13 11 12.5523 11 12C11 11.4477 11.4477 11 12 11C12.5523 11 13 11.4477 13 12Z"/><path fill="#74767B" fill-rule="evenodd" d="M4 7C4 5.34315 5.34315 4 7 4L17 4C18.6569 4 20 5.34315 20 7L20 17C20 18.6569 18.6569 20 17 20L7 20C5.34315 20 4 18.6569 4 17L4 15.6501L2.65 15.6501C2.29101 15.6501 2 15.3591 2 15.0001C2 14.6411 2.29101 14.3501 2.65 14.3501L4 14.3501L4 9.6501L2.65 9.6501C2.29101 9.6501 2 9.35908 2 9.0001C2 8.64111 2.29101 8.3501 2.65 8.3501L4 8.3501L4 7ZM15.9478 12.6479C15.6382 14.549 13.9885 16 12 16C9.79086 16 8 14.2091 8 12C8 9.79086 9.79086 8 12 8C13.9885 8 15.6382 9.45105 15.9478 11.3521C15.965 11.3507 15.9824 11.35 16 11.35L17 11.35C17.359 11.35 17.65 11.641 17.65 12C17.65 12.359 17.359 12.65 17 12.65L16 12.65C15.9824 12.65 15.965 12.6493 15.9478 12.6479Z"/><path fill="#74767B" fill-rule="evenodd" d="M4 7C4 5.34315 5.34315 4 7 4L17 4C18.6569 4 20 5.34315 20 7L20 17C20 18.6569 18.6569 20 17 20L7 20C5.34315 20 4 18.6569 4 17L4 15.6501L2.65 15.6501C2.29101 15.6501 2 15.3591 2 15.0001C2 14.6411 2.29101 14.3501 2.65 14.3501L4 14.3501L4 9.6501L2.65 9.6501C2.29101 9.6501 2 9.35908 2 9.0001C2 8.64111 2.29101 8.3501 2.65 8.3501L4 8.3501L4 7ZM15.9478 12.6479C15.6382 14.549 13.9885 16 12 16C9.79086 16 8 14.2091 8 12C8 9.79086 9.79086 8 12 8C13.9885 8 15.6382 9.45105 15.9478 11.3521C15.965 11.3507 15.9824 11.35 16 11.35L17 11.35C17.359 11.35 17.65 11.641 17.65 12C17.65 12.359 17.359 12.65 17 12.65L16 12.65C15.9824 12.65 15.965 12.6493 15.9478 12.6479Z"/></svg>

<svg xmlns="http://www.w3.org/2000/svg" fill="none" viewBox="0 0 24 24" focusable="false"><g fill="#74767B" fill-rule="evenodd"><path d="M12 14.7c1.49 0 2.7-1.21 2.7-2.7a2.706 2.706 0 1 0-2.7 2.7m1-2.7c0 .55-.45 1-1 1-.56 0-1-.45-1-1 0-.56.44-1 1-1 .55 0 1 .44 1 1"/><path d="M4 7c0-1.66 1.34-3 3-3h10c1.65 0 3 1.34 3 3v10c0 1.65-1.35 3-3 3H7c-1.66 0-3-1.35-3-3v-1.35H2.64c-.35 0-.64-.3-.64-.65 0-.36.29-.65.64-.65H4v-4.7H2.64C2.29 9.65 2 9.35 2 9c0-.36.29-.65.64-.65H4zm11.94 5.64C15.63 14.54 13.98 16 12 16a3.999 3.999 0 1 1 0-8c1.98 0 3.63 1.45 3.94 3.35H17c.35 0 .64.29.64.65 0 .35-.29.65-.64.65h-1c-.02 0-.04-.01-.06-.01"/></g></svg>
